X: 18617
T: I Will If I Can
R: jig
M: 6/8
K: Gmajor
|:D|GBd gdB|ded d2B|GBd gdB|ABA A2B|
GBd gdB|def gfe|ded|BcA|BGG G2:|
|:B/d/|gfg edB|d>ed def|gfg edB|A>BA A2d|
gfg edB|def gfe|ded BcA|BGG G2:|

